Source/WebInspectorUI/UserInterface/Images/gtk/StepInto.svg

<?xml version="1.0" encoding="UTF-8" standalone="no"?>
<!-- Licensed under the Creative Commons Attribution-Share Alike 3.0 United States License (http://creativecommons.org/licenses/by-sa/3.0/) -->
<svg xmlns="http://www.w3.org/2000/svg" version="1.1" viewBox="0 0 16 16">
 <g>
  <rect style="color:#bebebe" transform="rotate(90)" rx="0" ry="0" height="8" width="2.9023" y="-12" x="12.098"/>
  <path style="block-progression:tb;text-indent:0;color:#000000;text-transform:none" d="m7 1v5.5625l-1.2812-1.2813c-0.1882-0.1881-0.4535-0.2812-0.7188-0.2812h-1v1c0.00001 0.2653 0.0931 0.53058 0.28125 0.71875l3 3 0.2813 0.2812h0.875l0.28125-0.28125 3-3c0.188-0.1882 0.281-0.4535 0.281-0.7188v-1h-1c-0.2653 0.00001-0.53059 0.0931-0.71875 0.28125l-1.281 1.2813v-5.5625z"/>
 </g>
</svg>

<?xml version="1.0" encoding="UTF-8" standalone="no"?>
<!-- Created with Inkscape (http://www.inkscape.org/) -->

<svg
   xmlns:dc="http://purl.org/dc/elements/1.1/"
   xmlns:cc="http://creativecommons.org/ns#"
   xmlns:rdf="http://www.w3.org/1999/02/22-rdf-syntax-ns#"
   xmlns:svg="http://www.w3.org/2000/svg"
   xmlns="http://www.w3.org/2000/svg"
   version="1.1"
   width="16"
   height="16"
   id="svg5270">
  <defs
     id="defs5272" />
  <metadata
     id="metadata5275">
    <rdf:RDF>
      <cc:Work
         rdf:about="">
        <dc:format>image/svg+xml</dc:format>
        <dc:type
           rdf:resource="http://purl.org/dc/dcmitype/StillImage" />
        <dc:title></dc:title>
        <cc:license
           rdf:resource="http://creativecommons.org/licenses/by-sa/3.0/" />
      </cc:Work>
      <cc:License
         rdf:about="http://creativecommons.org/licenses/by-sa/3.0/">
        <cc:permits
           rdf:resource="http://creativecommons.org/ns#Reproduction" />
        <cc:permits
           rdf:resource="http://creativecommons.org/ns#Distribution" />
        <cc:requires
           rdf:resource="http://creativecommons.org/ns#Notice" />
        <cc:requires
           rdf:resource="http://creativecommons.org/ns#Attribution" />
        <cc:permits
           rdf:resource="http://creativecommons.org/ns#DerivativeWorks" />
        <cc:requires
           rdf:resource="http://creativecommons.org/ns#ShareAlike" />
      </cc:License>
    </rdf:RDF>
  </metadata>
  <g
     id="layer1">
    <rect
       width="2.9022989"
       height="8"
       rx="0"
       ry="0"
       x="12.097701"
       y="-12"
       transform="matrix(0,1,-1,0,0,0)"
       id="rect8382"
       style="color:#bebebe;fill-opacity:1;fill-rule:nonzero;stroke:none;stroke-width:2;marker:none;visibility:visible;display:inline;overflow:visible;enable-background:accumulate" />
    <path
       d="M 7,1 7,6.5625 5.71875,5.28125 C 5.53059,5.0931 5.2653,5.00001 5,5 L 4,5 4,6 c 10e-6,0.2653 0.0931,0.53058 0.28125,0.71875 l 3,3 L 7.5625,10 l 0.875,0 0.28125,-0.28125 3,-3 C 11.90694,6.53058 11.99999,6.2653 12,6 l 0,-1 -1,0 c -0.2653,10e-6 -0.53059,0.0931 -0.71875,0.28125 L 9,6.5625 9,1 z"
       id="path3613-4"
       style="font-size:medium;font-style:normal;font-variant:normal;font-weight:normal;font-stretch:normal;text-indent:0;text-align:start;text-decoration:none;line-height:normal;letter-spacing:normal;word-spacing:normal;text-transform:none;direction:ltr;block-progression:tb;writing-mode:lr-tb;text-anchor:start;color:#000000;fill-opacity:1;stroke:none;stroke-width:2;marker:none;visibility:visible;display:inline;overflow:visible;enable-background:accumulate;font-family:Bitstream Vera Sans;-inkscape-font-specification:Bitstream Vera Sans" />
  </g>
</svg>
